X: 490
T: A Winter's Morning
R: hornpipe
M: 4/4
K: Gmajor
GA|:BD (3DED B,D (3DED|DEGB (3ABA GA|BD (3DED B,D (3DED|ABGF E2GA|
BD (3DED B,D (3DED|DEGB (3ABA GA|Bd ~d2 ed ~d2|1 AGED E2GA:|2 AGED E2EG||
|:A2AB cBcd|ed (3efg edcA|BG~G2 dG ~G2|BG ~G2 BdBG|
A2AB cBcd|ed (3efg edcA|BG ~G2 dG ~G2|1 (3ABc BG A2 EG:|2 (3ABc BG A2 z||

